img/svg/delivery-truck-wt.svg

<svg width="44" height="44" viewBox="0 0 44 44" fill="none" xmlns="http://www.w3.org/2000/svg">
<g clip-path="url(#clip0)">
<path d="M35.9723 28.9348C34.8972 28.9348 33.8758 29.3559 33.1053 30.1174C32.3348 30.8879 31.9047 31.8914 31.9047 32.9665C31.9047 34.0417 32.3258 35.0451 33.1053 35.8156C33.8848 36.5772 34.8972 36.9983 35.9723 36.9983C38.1764 36.9983 39.9683 35.1885 39.9683 32.9665C39.9683 30.7446 38.1764 28.9348 35.9723 28.9348ZM35.9723 35.2064C34.7359 35.2064 33.6966 34.185 33.6966 32.9665C33.6966 31.748 34.7359 30.7267 35.9723 30.7267C37.1908 30.7267 38.1764 31.7301 38.1764 32.9665C38.1764 34.2029 37.1908 35.2064 35.9723 35.2064ZM37.0116 15.5045C36.8504 15.3522 36.6353 15.2716 36.4114 15.2716H31.8151C31.3224 15.2716 30.9192 15.6747 30.9192 16.1675V23.5143C30.9192 24.007 31.3224 24.4102 31.8151 24.4102H39.1082C39.6009 24.4102 40.0041 24.007 40.0041 23.5143V18.5955C40.0041 18.3446 39.8966 18.1027 39.7084 17.9325L37.0116 15.5045ZM38.2122 22.6183H32.7111V17.0545H36.0619L38.2122 18.9897V22.6183ZM14.0933 28.9348C13.0182 28.9348 11.9968 29.3559 11.2263 30.1174C10.4557 30.8879 10.0257 31.8914 10.0257 32.9665C10.0257 34.0417 10.4468 35.0451 11.2263 35.8156C12.0057 36.5772 13.0182 36.9983 14.0933 36.9983C16.2973 36.9983 18.0892 35.1885 18.0892 32.9665C18.0892 30.7446 16.2973 28.9348 14.0933 28.9348ZM14.0933 35.2064C12.8569 35.2064 11.8176 34.185 11.8176 32.9665C11.8176 31.748 12.8569 30.7267 14.0933 30.7267C15.3118 30.7267 16.2973 31.7301 16.2973 32.9665C16.2973 34.2029 15.3118 35.2064 14.0933 35.2064ZM8.11732 30.0368H6.31646V27.6536C6.31646 27.1608 5.91329 26.7576 5.42052 26.7576C4.92774 26.7576 4.52457 27.1608 4.52457 27.6536V30.9327C4.52457 31.4255 4.92774 31.8287 5.42052 31.8287H8.11732C8.61009 31.8287 9.01327 31.4255 9.01327 30.9327C9.01327 30.4399 8.61009 30.0368 8.11732 30.0368ZM12.6598 25.1539C12.6598 24.6611 12.2566 24.2579 11.7638 24.2579H0.895978C0.403207 24.2579 3.05176e-05 24.6611 3.05176e-05 25.1539C3.05176e-05 25.6466 0.403207 26.0498 0.895978 26.0498H11.7638C12.2566 26.0498 12.6598 25.6556 12.6598 25.1539ZM2.71475 21.9195L13.5826 21.9822C14.0754 21.9822 14.4785 21.588 14.4875 21.0952C14.4965 20.5935 14.0933 20.1903 13.6005 20.1903L2.73267 20.1276C2.72371 20.1276 2.72371 20.1276 2.72371 20.1276C2.23094 20.1276 1.82776 20.5218 1.82776 21.0146C1.8188 21.5163 2.22198 21.9195 2.71475 21.9195ZM4.54249 17.8519H15.4103C15.9031 17.8519 16.3063 17.4487 16.3063 16.9559C16.3063 16.4632 15.9031 16.06 15.4103 16.06H4.54249C4.04972 16.06 3.64654 16.4632 3.64654 16.9559C3.64654 17.4487 4.04972 17.8519 4.54249 17.8519ZM43.6685 16.6423L37.2535 11.3294C37.0923 11.195 36.8952 11.1233 36.6801 11.1233H29.1363V7.8979C29.1363 7.40513 28.7331 7.00195 28.2403 7.00195H5.42052C4.92774 7.00195 4.52457 7.40513 4.52457 7.8979V14.4562C4.52457 14.949 4.92774 15.3522 5.42052 15.3522C5.91329 15.3522 6.31646 14.949 6.31646 14.4562V8.79385H27.3533V30.0368H20.0065C19.5138 30.0368 19.1106 30.4399 19.1106 30.9327C19.1106 31.4255 19.5138 31.8287 20.0065 31.8287H30.9461C31.4388 31.8287 31.842 31.4255 31.842 30.9327C31.842 30.4399 31.4388 30.0368 30.9461 30.0368H29.1452V12.9152H36.3666L42.2081 17.7533L42.1454 30.0188H41.2136C40.7209 30.0188 40.3177 30.422 40.3177 30.9148C40.3177 31.4076 40.7209 31.8107 41.2136 31.8107H43.0324C43.5252 31.8107 43.9284 31.4165 43.9284 30.9238L44 17.3412C43.9911 17.0724 43.8746 16.8126 43.6685 16.6423Z" fill="#fff"/>
</g>
<defs>
<clipPath id="clip0">
<rect width="44" height="44" fill="white"/>
</clipPath>
</defs>
</svg>

<svg width="44" height="44" viewBox="0 0 44 44" fill="none" xmlns="http://www.w3.org/2000/svg"><g clip-path="url(#a)"><path d="M35.972 28.935a4.063 4.063 0 0 0-2.867 1.182c-.77.77-1.2 1.774-1.2 2.85 0 1.075.42 2.078 1.2 2.849a4.078 4.078 0 0 0 2.867 1.182c2.204 0 3.996-1.81 3.996-4.031 0-2.222-1.792-4.032-3.996-4.032zm0 6.271c-1.236 0-2.275-1.021-2.275-2.24 0-1.218 1.039-2.24 2.275-2.24 1.219 0 2.204 1.004 2.204 2.24 0 1.237-.985 2.24-2.204 2.24zm1.04-19.702a.87.87 0 0 0-.6-.232h-4.597a.899.899 0 0 0-.896.896v7.346c0 .493.403.896.896.896h7.293a.899.899 0 0 0 .896-.896v-4.918a.896.896 0 0 0-.296-.663l-2.696-2.428zm1.2 7.114h-5.5v-5.563h3.35l2.15 1.935v3.628zm-24.119 6.317a4.063 4.063 0 0 0-2.867 1.182c-.77.77-1.2 1.774-1.2 2.85 0 1.075.42 2.078 1.2 2.849a4.078 4.078 0 0 0 2.867 1.182c2.204 0 3.996-1.81 3.996-4.031 0-2.222-1.792-4.032-3.996-4.032zm0 6.271c-1.236 0-2.275-1.021-2.275-2.24 0-1.218 1.039-2.24 2.275-2.24 1.219 0 2.204 1.004 2.204 2.24 0 1.237-.985 2.24-2.204 2.24zm-5.976-5.17h-1.8v-2.382a.899.899 0 0 0-.896-.896.899.899 0 0 0-.896.896v3.279c0 .492.403.896.896.896h2.696a.899.899 0 0 0 .896-.896.899.899 0 0 0-.896-.896zm4.543-4.882a.899.899 0 0 0-.896-.896H.896a.899.899 0 0 0-.896.896c0 .493.403.896.896.896h10.868a.893.893 0 0 0 .896-.896zm-9.945-3.235l10.868.063a.904.904 0 0 0 .905-.887.887.887 0 0 0-.887-.905l-10.868-.062h-.01a.89.89 0 0 0-.895.887.887.887 0 0 0 .887.904zm1.827-4.067H15.41a.899.899 0 0 0 .896-.896.899.899 0 0 0-.896-.896H4.542a.899.899 0 0 0-.895.896c0 .493.403.896.895.896zm39.127-1.21l-6.415-5.313a.882.882 0 0 0-.574-.206h-7.544V7.898a.899.899 0 0 0-.896-.896H5.42a.899.899 0 0 0-.895.896v6.558c0 .493.403.896.896.896a.899.899 0 0 0 .895-.896V8.794h21.037v21.243h-7.347a.899.899 0 0 0-.895.896c0 .492.403.896.895.896h10.94a.899.899 0 0 0 .896-.896.899.899 0 0 0-.896-.896h-1.8V12.915h7.22l5.842 4.838-.063 12.266h-.931a.899.899 0 0 0-.896.896c0 .493.403.896.896.896h1.818a.89.89 0 0 0 .896-.887L44 17.34a.946.946 0 0 0-.331-.699z" fill="#fff"/></g><defs><clipPath id="a"><path fill="#fff" d="M0 0h44v44H0z"/></clipPath></defs></svg>
